src/assets/icons/linkedin.svg

<?xml version="1.0" encoding="UTF-8" standalone="no"?>

<svg
   width="100"
   height="100"
   viewBox="0 0 3 3"
   version="1.1"
   id="svg6"
   xmlns="http://www.w3.org/2000/svg"
   xmlns:svg="http://www.w3.org/2000/svg">
  <defs
     id="defs10" />
  <rect
     id="rect224"
     width="2.7"
     height="2.7"
     x="0.15000001"
     y="0.15000001"
     fill="none" />
  <path
     d="M 1.5,0.14999993 C 0.75433592,0.14999993 0.15,0.75433595 0.15,1.5 0.15,2.245664 0.75433592,2.8500001 1.5,2.8500001 2.245664,2.8500001 2.8499999,2.245664 2.8499999,1.5 2.8499999,0.75433595 2.245664,0.14999993 1.5,0.14999993 Z M 1.1224218,2.0647851 H 0.85927738 V 1.2226171 H 1.1224218 Z M 0.98373047,1.1171484 h -0.002107 c -0.0954493,0 -0.15714838,-0.064336 -0.15714838,-0.14607425 0,-0.0833204 0.0638082,-0.14607414 0.16083984,-0.14607414 0.0970316,0 0.15662107,0.0627537 0.15873037,0.14607414 C 1.1445732,1.0522857 1.0828741,1.1171484 0.9837331,1.1171484 Z M 2.175,2.0647851 H 1.8765234 V 1.6291993 c 0,-0.1139063 -0.046406,-0.1919532 -0.1492382,-0.1919532 -0.078574,0 -0.1223438,0.052735 -0.1423828,0.1033595 -0.00738,0.01793 -0.00633,0.043242 -0.00633,0.069083 v 0.455097 h -0.295837 c 0,0 0.00369,-0.7720312 0,-0.842168 H 1.5785742 V 1.3549804 C 1.5959765,1.2969723 1.6903711,1.214707 1.8411913,1.214707 2.0283984,1.214707 2.175,1.3359961 2.175,1.5965039 Z"
     id="path280" />
</svg>

<?xml version="1.0" encoding="UTF-8"?>
<svg width="100" height="100" version="1.1" viewBox="0 0 3 3" xmlns="http://www.w3.org/2000/svg">
 <rect x=".15" y=".15" width="2.7" height="2.7" fill="none"/>
 <path d="m1.5 0.15c-0.74566 0-1.35 0.60434-1.35 1.35 0 0.74566 0.60434 1.35 1.35 1.35 0.74566 0 1.35-0.60434 1.35-1.35 0-0.74566-0.60434-1.35-1.35-1.35zm-0.37758 1.9148h-0.26314v-0.84217h0.26314zm-0.13869-0.94764h-0.002107c-0.095449 0-0.15715-0.064336-0.15715-0.14607 0-0.08332 0.063808-0.14607 0.16084-0.14607 0.097032 0 0.15662 0.062754 0.15873 0.14607 5.279e-4 0.081212-0.061171 0.14607-0.16031 0.14607zm1.1913 0.94764h-0.29848v-0.43559c0-0.11391-0.046406-0.19195-0.14924-0.19195-0.078574 0-0.12234 0.052735-0.14238 0.10336-0.00738 0.01793-0.00633 0.043242-0.00633 0.069083v0.4551h-0.29584s0.00369-0.77203 0-0.84217h0.29584v0.13236c0.017402-0.058008 0.1118-0.14027 0.26262-0.14027 0.18721 0 0.33381 0.12129 0.33381 0.3818z"/>
 <circle cx="1.5" cy="1.5" r="1.35" fill="none" stroke-width=".03"/>
 <text x="0.55608028" y="1.3600945" fill="none" font-family="sans-serif" font-size=".48px" font-weight="bold" stroke-width=".03" xml:space="preserve"><tspan x="0.55608028" y="1.3600945" stroke-width=".03">CV</tspan></text>
</svg>
